packages/katcn/src/icons/svg/lowVolume-solid.svg

<svg width="24" height="25" viewBox="0 0 24 25" fill="none" xmlns="http://www.w3.org/2000/svg">
<path d="M15.7 2.508C14.7 2.008 13.6 2.208 12.7 2.908C10.6 4.608 8.3 6.208 5.8 7.508C4.1 8.408 3 10.208 3 12.208C3 14.108 4.1 15.908 5.8 16.908C8.1 18.108 10.4 19.708 12.7 21.608C13.2 22.008 13.8 22.208 14.5 22.208C14.9 22.208 15.3 22.108 15.7 21.908C16.7 21.408 17.3 20.508 17.3 19.408V5.008C17.3 3.908 16.7 2.908 15.7 2.508Z" fill="black"/>
<path d="M19.3 15.008C19.5 15.208 19.8 15.308 20 15.308C20.2 15.308 20.5 15.208 20.7 15.008C21.5 14.308 21.9 13.208 21.9 12.108C21.9 11.008 21.5 10.008 20.7 9.20799C20.3 8.80799 19.7 8.80799 19.3 9.20799C18.9 9.60799 18.9 10.208 19.3 10.608C19.7 11.008 19.9 11.508 19.9 12.008C19.9 12.508 19.7 13.008 19.3 13.408C18.9 14.008 18.9 14.608 19.3 15.008Z" fill="black"/>
</svg>

<svg xmlns="http://www.w3.org/2000/svg" fill="none" viewBox="0 0 24 25"><path fill="#000" d="M15.7 2.508c-1-.5-2.1-.3-3 .4-2.1 1.7-4.4 3.3-6.9 4.6-1.7.9-2.8 2.7-2.8 4.7 0 1.9 1.1 3.7 2.8 4.7 2.3 1.2 4.6 2.8 6.9 4.7q.75.6 1.8.6.6 0 1.2-.3c1-.5 1.6-1.4 1.6-2.5v-14.4c0-1.1-.6-2.1-1.6-2.5m3.6 12.5c.2.2.5.3.7.3s.5-.1.7-.3c.8-.7 1.2-1.8 1.2-2.9s-.4-2.1-1.2-2.9c-.4-.4-1-.4-1.4 0s-.4 1 0 1.4.6.9.6 1.4-.2 1-.6 1.4c-.4.6-.4 1.2 0 1.6"/></svg>
